assets/Candle/Flat/candle_flat.svg

<svg width="32" height="32" viewBox="0 0 32 32" fill="none" xmlns="http://www.w3.org/2000/svg">
<path d="M19.6288 30.0005H11.7156C10.9356 30.0005 10.3036 29.3685 10.3036 28.5884V15.4698C10.3036 14.6897 10.9356 14.0577 11.7156 14.0577H19.6288C20.4089 14.0577 21.0409 14.6897 21.0409 15.4698V28.5884C21.0409 29.3685 20.4089 30.0005 19.6288 30.0005Z" fill="#FFDEA7"/>
<path d="M16.4787 9.73157H14.866V12.1041H16.4787V9.73157Z" fill="#9B9B9B"/>
<path d="M20.5408 11.4495H10.8045C9.80758 11.4495 9 12.2579 9 13.254V17.8972C9 18.6878 9.6336 19.3303 10.4201 19.3449C11.2318 19.3602 11.8961 18.6708 11.8961 17.8592V15.5141C11.8961 15.2624 12.1001 15.0585 12.3517 15.0585C12.6034 15.0585 15.2924 15.0585 15.2924 15.0585C15.4841 15.0585 15.6403 15.2139 15.6403 15.4065V16.1712C15.6403 16.9828 16.3047 17.6722 17.1163 17.6569C17.9036 17.6423 18.5364 16.9998 18.5364 16.2092V15.5141C18.5364 15.2624 18.7404 15.0585 18.992 15.0585C19.2437 15.0585 19.4476 15.2624 19.4476 15.5141V20.1524C19.4476 20.9641 20.112 21.6535 20.9236 21.6381C21.7109 21.6236 22.3437 20.9811 22.3437 20.1905V13.2548C22.3445 12.2579 21.537 11.4495 20.5408 11.4495Z" fill="#FFCE7C"/>
<path d="M18.258 5.57141L16.4082 2.42119C16.078 1.8596 15.2664 1.8596 14.9362 2.42119L13.0807 5.58031C13.0565 5.61996 13.033 5.65962 13.0103 5.70008L12.9998 5.71707C12.7425 6.18479 12.6049 6.72614 12.6268 7.30229C12.6883 8.90694 14.0259 10.2089 15.6313 10.2292C17.3331 10.251 18.7193 8.87862 18.7193 7.18253C18.7193 6.59101 18.5501 6.03832 18.258 5.57141Z" fill="#FFB02E"/>
<path d="M15.6727 9.03566C16.5911 9.03566 17.3356 8.29115 17.3356 7.37275C17.3356 6.45435 16.5911 5.70984 15.6727 5.70984C14.7543 5.70984 14.0098 6.45435 14.0098 7.37275C14.0098 8.29115 14.7543 9.03566 15.6727 9.03566Z" fill="#FCD53F"/>
</svg>

<svg xmlns="http://www.w3.org/2000/svg" width="32" height="32" fill="none"><path fill="#FFDEA7" d="M19.629 30h-7.913c-.78 0-1.412-.631-1.412-1.412V15.47c0-.78.632-1.412 1.412-1.412h7.913c.78 0 1.412.632 1.412 1.412v13.118c0 .78-.632 1.412-1.412 1.412Z"/><path fill="#9B9B9B" d="M16.479 9.732h-1.613v2.372h1.613V9.732Z"/><path fill="#FFCE7C" d="M20.54 11.45h-9.735c-.997 0-1.805.808-1.805 1.804v4.643c0 .79.634 1.433 1.42 1.448.812.015 1.476-.674 1.476-1.486v-2.345c0-.252.204-.455.456-.455h2.94c.192 0 .348.155.348.348v.764c0 .812.665 1.501 1.476 1.486a1.447 1.447 0 0 0 1.42-1.448v-.695a.456.456 0 1 1 .912 0v4.638c0 .812.664 1.502 1.476 1.486a1.447 1.447 0 0 0 1.42-1.448v-6.935c0-.997-.807-1.806-1.803-1.806Z"/><path fill="#FFB02E" d="m18.258 5.571-1.85-3.15a.854.854 0 0 0-1.472 0l-1.855 3.16c-.024.039-.048.079-.07.12L13 5.716a3.035 3.035 0 0 0-.373 1.585 3.066 3.066 0 0 0 3.004 2.927 3.047 3.047 0 0 0 2.627-4.658Z"/><path fill="#FCD53F" d="M15.673 9.036a1.663 1.663 0 1 0 0-3.326 1.663 1.663 0 0 0 0 3.326Z"/></svg>
